X:1
T:Avril s'éveille
T:Avril s'éveille
T:Cécile Chaminade
T:Avril s'éveille
T:Robert Myriel
T:Creative Commons copyright waiver (CC0 1.0 Universal)
T:Creative Commons copyright waiver (CC0 1.0 Universal)
T:Creative Commons copyright waiver (CC0 1.0 Universal)
T:Creative Commons copyright waiver (CC0 1.0 Universal)
C:Cécile Chaminade
Z:Robert Myriel
Z:Creative Commons copyright waiver (CC0 1.0 Universal)
%%score 1 { ( 2 4 ) | 3 }
L:1/8
Q:1/4=110
M:6/8
K:C
V:1 treble nm="Voice"
V:2 treble nm="Piano"
V:4 treble 
V:3 bass 
V:1
"^Allegro" z6 |"^https://www.lieder.net/lieder/get_text.html?TextId=31571" z6 | z6 | z6 | %4
w: ||||
!p! G (E/F/) G- G{FG} F/ E/ F/ D/ | G3- !breath!G (F/E/) (F/D/) | .G (G/A/G/A/) .B (B/c/) (B/c/) | %7
w: Le prin- * temps * fond, dans un bai-|ser, _ Les * fri- *|mas pou- * * * drés de * la _|
 (A3 G2) z | z!<(! G (_B-!<)! B (A/G/) (F/E/) | .D)!>(! ((D/E/) (F/G/))!>)! .A z z | %10
w: veil- le|Et sem- * ble * vou- *|loir tout * gri- * ser...|
 z!pp! C c- c (B/A/G/F/) | ((E{DE} D2) C) z z | z!mf! G (d- d (c/B/)) (A/G/) | %13
w: A- vril _ s’é- * * *|veil- * le!|Un souf- * fle * ca- *|
!p! _E (E/F/) (E/F/) G3 | z!mf! G d- d (c/B/) (A/G/) |!<(! E (E/^F/) (E/F/) (A2 G/)!<)! z/ | %16
w: res- se, * plus * pur,|Les ar- * bres * du *|bois qui * ver- * doi- e;|
!f! ^F e e- e (d B) | d!>(! (c/B/) (A/c/) B3!>)! | z!<(! (E/^F/) .G (G/A/) .B!<)!!f! (B/^c/) | %19
w: Le so- leil _ i- *|non- de * l’ a- zur...|A- * vril, A- * vril flam- *|
!<(! ^d3- d3!<)! | z!p! G =d- d (c/B/A/G/) | _E-{/E} (E/F/) (E/F/) G3 | z G G e (d/B/) (G/^F/) | %23
w: boi- e!|Les fleurs * é- * * *|closent dans * les * prés.|Leur su- ave et _ di- *|
 E (E/^F/E/F/) (A2 !breath!G) |!f! (^F e2) e d B | d (c/B/) (A/c/) B3 | z!p! G d- d (c/B/A/G/) | %27
w: vin a- * * * rò- me|Mon- * te des ca-|li- ces * do- * rés ...|A- vril _ em- * * *|
 (A3 G2) z |"^dolce"[Q:1/4=106] =F F F F2 F | %29
w: bau- me!|Et, che- mi- nant à|
"^les doubles croches \nsans rigueur\n" (E/ D/ G2-) !breath!!tenuto!.G3 | %30
w: pe- tits pas, _|
"^poco cresc." G G G G2 G | (F/ E/!>(! A2-)!>)! !tenuto!.A3 | %32
w: Par les sen- tiers, sous|la ra- mu- re,|
!mf!!>(! !tenuto!=c !tenuto!c !tenuto!c !tenuto!c2 !tenuto!c!>)! | (B/ c/ B2-) !tenuto!.B3 | %34
w: Les a- mou- reux se|par- lent bas, _|
!p! _B B B B2 B | A/ _B/ A2- A3 |[Q:1/4=102] z2!pp! (C C2 C |!ppp!!<(! G3- G2"^cresc." G | %38
w: Les a- mou- reux se|par- lent bas. _|A- vril mur-|mu- re! mur-|
 G3-!<)! G2!pp!!>(! G |"^Rit."[Q:1/4=96] G3-!>)![Q:1/4=90] G3) | %40
w: mu- re! mur-|mu- re!|
!p!"^A tempo"[Q:1/4=110] G (E/ F/) G- G{FG} (F/E/) (F/D/) | G3- !breath!!tenuto!.G (F/E/) (F/D/) | %42
w: Puis lèvre à lè- vre, dans * leurs *|cœurs _ Ils * é- *|
 .G (G/A/) (G/A/) .B (B/c/)(B/c/) | (A3 G2) z | z!mf!!<(! G _B-!<)! B (A/G/) F/ E/ | %45
w: cou- tent * la * voix qui _ _ _|chan- te,|La voix * de * leurs vingt|
!p! .D!>(! (D/E/F/G/)!>)! .A z z | z!pp!!<(! C c-!<)! c!>(! (B/A/G/F/) | ((E{DE} D2) C2)!>)! z |] %48
w: ans mo- * * * queurs ...|A- vril * en- * * *|chan- * te!|
V:2
!p! z6 |"_m.g."!<(! (.[GA].[GA].[GA] .[GA].[GA].[GA])!<)! | (.[_Bg].[Bg].[Bg] .[Bg].[Bg].[Bg]) | %3
!>(! (.[=Bd].[Bd].[Bd] .[Bd].[Bd].[Bd])!>)! |!p! (.[Gcg].[Gcg].[Gcg] .[Gcg].[GBf].[GBd]) | %5
 (.[Gcg].[Gcg].[Gcg] .[Gcg].[GBf].[GBd]) | (.[Gcg].[Gcg].[GA] .[GBd].[GBd].[Gc=e]) | %7
 (.[^Fcd].[Fcd].[Fcd] .[GBd].[GBd].[GBd]) | [G_Bd][GBd][GBd] [GA^c][GAc][GAc] | [FAd] z z z2 z | %10
!p! ([CEG][CEG][CEG] [CFA][CFA][CFA]) | ([B,FG][B,FG][B,FG] [CEG][CEG][CEG]) | %12
 (.!^![GBd]!mp!.[GBd].[GBd] .[GBd].[GBd].[GBd]) |!p! (.[G_B_e].[GBe].[GBe] .[GBe].[GBe].[GBe]) | %14
!mf! (.[G=Bd].[GBd].[GBd] .[DGd].[DGd].[DGd]) |!<(! (.[=EG^c].[EGc].[EGc] .[EGc].[EGc].[EGc])!<)! | %16
!f! [D^F=c][DFc][DFc] [D=FB][DFB][DFB] | [CEc][CEc][CEc] [^DAB][DAB][DAB] | %18
!<(! [EGB][EGB][EGB] [EGB][EGB][EGB]!<)! |!f!!<(! [^D^FB^d][DFBd][DFBd] [DFBd][DFBd][DFBd]!<)! | %20
 !^![=DGB=d]!p! (.[G,B,D].[G,B,D] .[G,B,D].[G,B,D].[G,B,D]) | %21
 (.[G,_B,^C].[G,B,C].[G,B,C] .[G,B,C].[G,B,C].[G,B,C]) | (.[G,D].[G,D].[G,D] .[G,D].[G,D].[G,D]) | %23
 (.[_B,EG].[B,EG].[B,EG] .[B,EG].[B,EG].[B,EG]) |!f! [A,D^F][A,DF][A,DF] [A,D=F][A,DF][^G,DE] | %25
!>(! [A,CE][A,CE][A,CE] [A,B,^D][A,B,D][A,B,D] | [G,B,E][G,B,E][G,B,E]!>)!!p! [G,DG][G,DG][G,DG] | %27
 [^F,CD]!>(![F,CD][F,CD] [G,B,D][G,B,D][G,B,D]!>)! |"_sostenuto"!p! z ([A,C=F]2 [A,CF]2 [A,CF]-) | %29
 ([A,CF] [G,B,F]2!>(! [G,B,F]2 [G,B,F])!>)! |!p!!mp!"_poco cresc." z ([_B,DG]2 [B,DG]2 [B,DG]-) | %31
 ([B,DG] [A,^CG]2!>(! [A,CG]2 [A,CG])!>)! |!mf! z ([=CF=c]2 [CFc]2 [CFc]) | %33
 z ([DFB]2 [DFB]2 [DFB]) |!p! z ([DF_B]2 [DFB]2 [DFB]) |!>(! z ([^CEA]2 [CEA]2 [CEA])!>)! | %36
!pp! z ([C_E_A]2 [CEA]2 [CEA]) |!<(! [B,=EG][B,EG][B,EG] [B,DG][B,DG][B,DG] | %38
 [FG][FG][FG] [EG]!<)![EG][EG] |!pp! g3-!>(! g3!>)! | %40
"^A tempo" (.[Gcg].[Gcg].[Gcg] .[Gcg].[GBf].[GBd]) | (.[Gcg].[Gcg].[Gcg] .[Gcg].[GBf].[GBd]) | %42
 (.[Gcg].[Gcg].[GA]) (.[GBd].[GBd].[Gc=e]) | (.[^Fcd].[Fcd].[Fcd] .[GBd].[GBd].[GBd]) | %44
 [G_Bd][GBd][GBd] [GA^c][GAc][GAc] | [FAd] z z z2 z |!pp! [CEG][CEG][CEG] [CFA][CFA][CFA] | %47
 [B,FGB]3!<(! [CEc][cec']!<)! z |] %48
V:3
 (.G,.G,.G, .G,.G,G,-) | G,3- G,3- | G,3- G,3 |[I:staff -1] [FG][FG][FG] [FG][FG][FG] | %4
 EC/D/E- EDF | EC/D/E- EDF | EE_E DDD | DDD[I:staff +1] .G,.G,.G, | %8
[I:staff -1] !>!E3[I:staff +1] !>!A,3 | D, z z z2 z | G,,3- G,,3 | [G,,,G,,]3 [C,,,C,,]2 z | %12
 !^![G,,,G,,]2 .[G,D] [G,D][G,D][G,D] | (.^C.C.C .C.C.C) | (.[G,D].[G,D].[G,D] .B,.B,.B,) | %15
 (._B,.B,.B, .B,.B,.B,) | A,A,A, ^G,G,G, | A,A,G, ^F,F,F, | [E,B,][E,B,][E,B,] [E,^C][E,C][E,C] | %19
 [B,,^F,B,][B,,F,B,][B,,F,B,] [B,,F,B,][B,,F,B,][B,,F,B,] | %20
 !^![G,,,G,,] (.[G,,D,].[G,,D,] .[G,,D,].[G,,D,].[G,,D,]) | (._E,.E,.E, .E,.E,.E,) | %22
 (.[=B,,D,].[B,,D,].[B,,D,] .[B,,D,].[B,,D,].[B,,D,]) | (.^C,.C,.C, .C,.C,.C,) | %24
 [=C,,=C,]3 [B,,,B,,]3 | [A,,,A,,]2 [G,,,G,,] [^F,,,^F,,]3 | [E,,,E,,]3 [B,,,B,,]2 [C,,C,] | %27
 ([D,,D,]3 [G,,,G,,]3) |!ped! (D,G,,D, G,,D,G,,)!ped-up! |!ped! (D,G,,D, G,,D,!ped-up!G,,) | %30
!ped! (E,G,,E, G,,E,G,,)!ped-up! |!ped! (E,G,,E, G,,E,!ped-up!G,,) | %32
!ped! (A,G,,A, G,,A,G,,)!ped-up! |!ped! (_A,G,,A, G,,A,G,,)!ped-up! | %34
!ped! (_A,G,,A, G,,A,G,,)!ped-up! |!ped! (G,G,,G, G,,G,G,,)!ped-up! | %36
!ped! (^F,G,,F, G,,F,G,,)!ped-up! | %37
!ped! [G,,=F,][G,,F,][G,,F,] [G,,F,][G,,F,]"^cresc."[G,,F,]!ped-up! | %38
!ped! [G,_B,^C][G,B,C][G,B,C] [G,B,C][G,B,C][G,B,C]!ped-up! |!ped! [G,F]3 [G,,,G,,]3!ped-up! | %40
!p![I:staff -1] EC/D/E- EDF | EC/D/E- EDF | EE_E DDD |[I:staff +1] (D,3 G,,3) | %44
[I:staff -1] !^!E3[I:staff +1] !^!A,3 | D, z z z2 z | [G,,,G,,]3- [G,,,G,,]3 | %47
 [G,,,G,,]3 [C,,,C,,][C,G,] z |] %48
V:4
 x6 | [^CE][CE][CE] [CE][CE][CE] | [DF][DF][DF] [DF][DF][DF] | x6 | x6 | x6 | x6 | x6 | x6 | x6 | %10
 x6 | x6 | x6 | x6 | x6 | x6 | x6 | x6 | x6 | x6 | x6 | x6 | x6 | x6 | x6 | x6 | x6 | x6 | x6 | %29
 x6 | x6 | x6 | x6 | x6 | x6 | x6 | x6 | x6 | x6 | %39
 !arpeggio![G=Be]"^Rit."[GBe][GBe] [FBd]!fermata![FBd]!fermata![FBd] | x6 | x6 | x6 | x6 | x6 | %45
 x6 | x6 | x6 |] %48

